lib/components/NewIcon/assets/Play.svg

<svg viewBox="0 0 24 24" fill="none" xmlns="http://www.w3.org/2000/svg">
<path d="M5 12.5C5 9.13823 5 7.45734 5.71653 6.49727C6.35659 5.63964 7.34765 5.0959 8.43174 5.00756C9.64533 4.90868 11.119 5.78102 14.0664 7.52571C16.8259 9.15915 18.2056 9.97587 18.6811 11.0259C19.1063 11.9649 19.1063 13.0351 18.6811 13.9741C18.2056 15.0241 16.8259 15.8409 14.0664 17.4743C11.119 19.219 9.64533 20.0913 8.43174 19.9924C7.34765 19.9041 6.35659 19.3604 5.71653 18.5027C5 17.5427 5 15.8618 5 12.5Z" fill="currentColor"/>
</svg>

<svg xmlns="http://www.w3.org/2000/svg" fill="none" viewBox="0 0 24 24"><path fill="currentColor" d="M5 12.5c0-3.362 0-5.043.717-6.003a3.77 3.77 0 0 1 2.715-1.49c1.213-.098 2.687.774 5.634 2.519 2.76 1.633 4.14 2.45 4.615 3.5.425.939.425 2.01 0 2.948-.475 1.05-1.855 1.867-4.615 3.5-2.947 1.745-4.42 2.617-5.634 2.518a3.77 3.77 0 0 1-2.715-1.49C5 17.543 5 15.863 5 12.5"/></svg>
